X:1
T:Montreal
T:A Major              Hezekiah Moors, 1809
T:Transcribed from Province Harmony, 1809.
T:Isaac Watts, 1719 (Psalm 113, Part 1)                         88. 88. 88.
%%score [ 1 2 3 4 ]
L:1/8
Q:1/4=120
M:2/2
K:A
V:1 treble nm="Tr." snm="Tr."
V:2 treble nm="C." snm="C."
V:3 treble-8 nm="T." snm="T."
V:4 bass nm="B." snm="B."
V:1
"_1. Ye    that delight to  serve _________ the  Lord,  The ho–nors   of _______  his   name _______ re – cord,                                                          His  sacred  name for\n2. Not time nor nature's nar        –       row rounds,  Can give his   vast ______  do – min       –     ion bounds,                                                        The heav'ns are far be–" A8 | %1
 c2 c2 A2 G2 | (A3 B c2) B2 | c6 A2 | B6 B2 | (c3 d e2) d2 | (c3 B A2) B2 | B6 z2 | z8 | z4 z2 AB | %10
 c2 c2 c2 A2 | %11
"_1. ev          –          –        er   bless;  Where–e'er the circling sun displays His    ri    –    sing          beams,    or   setting  rays,   His   ri  –  sing  beams, or       set   –   ting\n2. –low ____________  his height:  Let      no cre –a –ted greatness dare With  our     e        –     ter   –   nal God compare,  With  our    e  –  ter  –   nal      God     com –" (B3 c BcdB | %12
 c4) B4 | A6 ed |: c2 c2 c2 cB | A2 A2 A2 G2 | (A3 B) c4 | B6 B2 | c2 c2 c2 A2 | BA GF EF GA | %20
 B4 B4 | %21
"_1.   rays,                       Let     lands ________________________  Let   lands      and   seas ____  his  pow'r con–fess. Where–\n2.– pare,                    Armed  with _________________________ Armed   with  his    un      –     cre – a – ted  might.  Let" B6 z2 | %22
 z4 z2 E2 | (A3 B ABAB | cdcB A2) c2 | d6 B2 | (c3 d e2) A2 | (B2 A2) G4 |1 A6 ed :|2 A8 |] %30
V:2
"_1. Ye    that delight to  serve _________ the  Lord,  The ho–nors   of _______  his   name _______ re – cord,\n2. Not time nor nature's nar        –       row rounds,  Can give his   vast ______  do – min       –     ion bounds," E8 | %1
 E2 E2 E2 E2 | E6 E2 | E6 E2 | E6 E2 | (E3 D C2) E2 | E4 F4 | E6 z2 | z8 | z8 | %10
 z4 z2"_His\nThe" C2 | %11
"_1. sacred  name  for     ev – er   bless;                                                                                   Where–e'er the circling sun displays  His  ri  –  sing  beams,  or      set     –    ting \n2. heav'ns are far be – low  his height:                                                                                     Let     no cre–a–ted greatness dare  With our  e  –  ter  –   nal      God       com–" E2 E2 E2 E2 | %12
 E4 E4 | E6 z2 |: z8 | z8 | z4 z2 C2 | E2 E2 E2 E2 | C2 C2 F2 E2 | E2 E2 E2 E2 | E4 ^D4 | %21
"_1.   rays,                                                                                                Let  lands        and  seas        his   pow'r  con –fess. \n2. –pare,                                                                                             Armed  with       his   un    –    cre – a   –   ted  might." E6 z2 | %22
 z8 | z8 | z4 z2 A2 | B6 G2 | E6 E2 | F4 E4 |1 E6 z2 :|2 E8 |] %30
V:3
"_1. Ye    that delight to  serve _________ the  Lord,  The ho–nors   of _______  his   name _______ re – cord,                             His    sacred name for   ever  bless;  His\n2. Not time nor nature's nar        –       row rounds,  Can give his   vast ______  do – min       –     ion bounds,                          The heav'ns are far below his height: The" E8 | %1
 A2 A2 A2 B2 | (c>dcB A2) G2 | A6 c2 | B6 d2 | (c3 B A2) E2 | (A2 ed c2) ^d2 | e6 z2 | z4 z2 AB | %9
 c2 c2 c2 cB | A2 A2 A2 c2 | %11
"_1. sacred  name  for     ev –  er bless;                                                        Where–e'er the circling sun displays  His rising beams, His  ri  – sing  beams  or       set      –    ting\n2. heav'ns are far be – low his height:                                                        Let    no cre –a– ted greatness dare  With our e–ter–nal,  our    e   –   ter   –   nal     God         com–" B2 B2 B2 G2 | %12
 A4 B4 | c6 z2 |: z8 | z4 z2 cB | A2 A2 A2 BA | G2 E2 E2 G2 | A2 A2 AB c2 | B2 B2 BA Bc | %20
 (B3 A G2) F2 | %21
"_1. rays,  Let  lands ________________________________________  Let  lands      and   seas         his  pow'r  con – fess. \n2. –pare, Armed with _____________________________________ Armed with    his      un   –     cre –  a  –  ted  might." E6 E2 | %22
 (A3 B ABAB | c3 d cdcd | efed c2) e2 | (f3 e f2) g2 | a6 c2 | (d2 c2) B4 |1 A6 z2 :|2 A8 |] %30
V:4
 A,,8 | A,,2 A,,2 A,,2 E,2 | A,6 E,2 | A,,6 A,2 | E,6 E,2 | (A,3 B, C2) B,2 | (A,3 G, F,2) B,2 | %7
 E,6"_1. His  sacred  name  for   ev–er  bless;  His   sa   –   cred\n2. The heav'ns are far below his height: The heav'ns  are" E,2 | %8
 A,2 A,2 A,2 A,G, | F,2 F,2 F,2 E,2 | A,,4 A,,4 | %11
"_1. name             for       ev – er   bless;                            Where–e'er the circling   sun        dis     –     plays _______________    His   ri   –  sing   beams,  or     set    –    ting\n2. far                  be   –  low  his  height:                           Let      no  cre –a – ted   great  –  ness         dare ________________  With  our    e   –   ter   –    nal   God      com–" E,6 E,2 | %12
 A,4 E,4 | A,6 z2 |: z4 z2 A,G, | F,2 F,2 F,2 E,2 | A,,4 A,4 | (E,8 | F,6) A,2 | E,2 E,2 E,2 E,2 | %20
 E,4 B,,4 | %21
"_1.  rays,                                                             Let      lands,               Let    lands      and  seas         his   pow'r  con –fess. \n2. –pare,                                                           Armed  with,            Armed  with      his    un     –    cre  –  a  –  ted  might." E,6 z2 | %22
 z8 | z4 z2 E,2 | A,6 C2 | B,6 E,2 | A,6 A,2 | D,4 E,4 |1 A,,6 z2 :|2 A,,8 |] %30

